X: 132023
T: BIDE YE YET
Q: "Scotch Jig."
R: Jig.
%R: jig
B: James Kerr "Merry Melodies" v.1 p.32 s.0 #23
Z: 2016 John Chambers <jc:trillian.mit.edu>
M: 6/8
L: 1/8
K: G	% and E minor
ud |\
BAB uG2uA | Bcd cBA | BAB G2A | B2e e2d |\
BAB G2A | Bcd cBA | BAB G2A | B2e e2 :|
|: ud |\
vB2vg ug2ud | B2d d2A | B2g gab | B2e e2d |\
B2g gab | Bcd cBA | BAG G2A | B2e e2 :|

%%sep 1 1 500
%%sep 1 1 500

